src/xmb/monochrome/Uzebox.svg

<?xml version="1.0" encoding="UTF-8" standalone="no"?>
<svg
   xmlns:dc="http://purl.org/dc/elements/1.1/"
   xmlns:cc="http://creativecommons.org/ns#"
   xmlns:rdf="http://www.w3.org/1999/02/22-rdf-syntax-ns#"
   xmlns:svg="http://www.w3.org/2000/svg"
   xmlns="http://www.w3.org/2000/svg"
   xmlns:sodipodi="http://sodipodi.sourceforge.net/DTD/sodipodi-0.dtd"
   xmlns:inkscape="http://www.inkscape.org/namespaces/inkscape"
   version="1.1"
   id="Calque_1"
   x="0px"
   y="0px"
   width="64px"
   height="64px"
   viewBox="0 0 64 64"
   enable-background="new 0 0 64 64"
   xml:space="preserve"
   inkscape:version="0.91 r13725"
   sodipodi:docname="Uzebox.svg"
   inkscape:export-filename="/home/tp/.config/retroarch/assets/xmb/monochrome/src/Uzebox-content.png"
   inkscape:export-xdpi="360"
   inkscape:export-ydpi="360"><metadata
     id="metadata8"><rdf:RDF><cc:Work
         rdf:about=""><dc:format>image/svg+xml</dc:format><dc:type
           rdf:resource="http://purl.org/dc/dcmitype/StillImage" /></cc:Work></rdf:RDF></metadata><defs
     id="defs6"><inkscape:path-effect
       effect="spiro"
       id="path-effect4241"
       is_visible="true" /></defs><sodipodi:namedview
     pagecolor="#808080"
     bordercolor="#666666"
     borderopacity="1"
     objecttolerance="10"
     gridtolerance="10"
     guidetolerance="10"
     inkscape:pageopacity="0"
     inkscape:pageshadow="2"
     inkscape:window-width="2099"
     inkscape:window-height="1309"
     id="namedview4"
     showgrid="false"
     inkscape:zoom="20.85965"
     inkscape:cx="28.900374"
     inkscape:cy="29.900705"
     inkscape:window-x="205"
     inkscape:window-y="454"
     inkscape:window-maximized="0"
     inkscape:current-layer="Calque_1" /><path
     style="opacity:1;fill:#ffffff;fill-opacity:1;fill-rule:nonzero;stroke:none;stroke-width:1;stroke-linecap:square;stroke-miterlimit:4;stroke-dasharray:none;stroke-opacity:1"
     d="M 43.888672 14.005859 A 12.691829 25.902075 64.438629 0 0 25.328125 19.140625 A 12.691829 25.902075 64.438629 0 0 8.9453125 41.751953 A 12.691829 25.902075 64.438629 0 0 38.671875 40.859375 A 12.691829 25.902075 64.438629 0 0 55.054688 18.248047 A 12.691829 25.902075 64.438629 0 0 43.888672 14.005859 z M 42.898438 16.003906 A 11.1962 23.550904 66.067311 0 1 43.777344 16.021484 L 13.679688 29.410156 A 11.1962 23.550904 66.067311 0 1 25.882812 20.498047 A 11.1962 23.550904 66.067311 0 1 42.898438 16.003906 z M 45.550781 16.121094 A 11.1962 23.550904 66.067311 0 1 53.132812 19.71875 A 11.1962 23.550904 66.067311 0 1 53.851562 24.179688 L 31.496094 34.326172 L 45.550781 16.121094 z M 30.681641 25.121094 L 16.623047 43.609375 A 11.1962 23.550904 66.067311 0 1 10.867188 40.28125 A 11.1962 23.550904 66.067311 0 1 10.837891 33.740234 L 30.681641 25.121094 z M 52.099609 28.261719 A 11.1962 23.550904 66.067311 0 1 38.117188 39.501953 A 11.1962 23.550904 66.067311 0 1 17.789062 43.814453 L 52.099609 28.261719 z "
     id="path4202-7" /></svg>

<svg xmlns="http://www.w3.org/2000/svg" xml:space="preserve" width="64" height="64"><path d="M43.889 14.006a12.692 25.902 64.439 0 0-18.56 5.135A12.692 25.902 64.439 0 0 8.944 41.752a12.692 25.902 64.439 0 0 29.727-.893 12.692 25.902 64.439 0 0 16.383-22.611 12.692 25.902 64.439 0 0-11.166-4.242m-.99 1.998a11.196 23.55 66.067 0 1 .878.017L13.68 29.411a11.196 23.55 66.067 0 1 12.203-8.913 11.196 23.55 66.067 0 1 17.015-4.494m2.652.117a11.196 23.55 66.067 0 1 7.582 3.598 11.196 23.55 66.067 0 1 .719 4.46L31.496 34.327zm-14.87 9L16.624 43.61a11.196 23.55 66.067 0 1-5.756-3.328 11.196 23.55 66.067 0 1-.03-6.54zm21.419 3.14a11.196 23.55 66.067 0 1-13.983 11.241 11.196 23.55 66.067 0 1-20.328 4.312z" style="opacity:1;fill:#fff;fill-opacity:1;fill-rule:nonzero;stroke:none;stroke-width:1;stroke-linecap:square;stroke-miterlimit:4;stroke-dasharray:none;stroke-opacity:1"/></svg>
